X: 13
T: the Haunted Castle
%C: Mr. Gray
%R: reel
B: Mr. Gray "24 Country Dances for the Year 1805" p.7 #1
S: http://folkopedia.efdss.org/images/9/92/ThompsGray_24_1805.PDF  2013-12-2
Z: 2013 John Chambers <jc:trillian.mit.edu>
M: C
L: 1/8
K: Bb
(BA) |\
G2(ed) c2(gf) | edcB AcAF | BFdB fdbg | agf=e f4 :|
|: f2 |\
fdc=B cBcd | ecBA B(ABc) | (dB)(ec) (fd)(ge) | edcB AFGA |
BFDF BGEd | ecdB BAGF | GBeg fabd | ecBA B2 :|
% - - - - - - - - - - - - - - - - - - - - - - - - -
%%begintext align
%% Cast of 2 Cu: up again, lead down the mid:
%% up again, set & turn corners lead outsides
%% with your Partner.
%%endtext
